X: 60
T: 56. THE LOP-EARED MULE
B: Sam Bayard, "Hill Country Tunes" 1944 #56
S: Played by Robert Crow, Claysville, PA, Sept 13, 1943.  Learned in that region.
R: reel
M: 4/4
L: 1/8
Z: 2010 John Chambers <jc:trillian.mit.edu>
%%slurgraces
K: G
g2- |\
g2b2 d2c2 | ((3BcB) A2 G4 | FGAB c2^/F2 | GABc d2g2- |
g2b2 d2c2 | ((3BcB) A2 G4 | FGAB "a."cAFA | "b."G2BA G2 ::[K:D] {EFG}A2 |
[a2A2][a2A2] [a3A3]g | f2d2 d2ef | g2G2 B2c2 | ed^/cB A2 "c."((3EFG) |
[a2A2][a2A2] [a3A3]g | f2d2 d2ef | g2 ((3fgf) e2ce | f2[f2d2] [f2d2] |]
P: Var:
"a."c2F2 || "b."G3G G2 || "c"((3FFG) |] y8 y8 y8 y8 y8 y8

%%sep 2 1 500
%%sep 1 1 500

